X:1
T:Orsa storpolska
R:Polska
Z:Hkan Lidn, 2008-09-26
O:Dalarna
D:Bjrn Stbi
N:Orsa
M:3/4
L:1/8
K:Ddor
A>d f>e d>e | (3^cBc d2 e2 | ^f/e/f/g/ ab g>e | (3^f2 e2 ^c2 A2- |
A>d f>e d>e | (3^cBc d2 e2 | ^f/e/f/g/ ab g>e | (3=fag e4 :|
|: A>a g>b a>e | f>a g/f/g/b/ a>e |(3:2:4fa g2 b2 a>e | f>a g/f/g/b/ a2 |
f/e/f/g/ e>f d>e | (3^cBc d>e f/e/f/g/ | a/b/a/g/ e>f d>e | (3^cBc d4 :|]
